hosted/assets/icon/widgets/light-mode/unused/range.svg

<svg width="50" height="50" viewBox="0 0 50 50" fill="none" xmlns="http://www.w3.org/2000/svg">
<path d="M2.90631 13.9688C2.86334 13.9766 2.82037 13.9883 2.78131 14C2.31647 14.1055 1.98834 14.5234 2.00006 15V35C1.99615 35.3594 2.18365 35.6953 2.49615 35.8789C2.80865 36.0586 3.19147 36.0586 3.50397 35.8789C3.81647 35.6953 4.00397 35.3594 4.00006 35V15C4.01178 14.7109 3.89459 14.4336 3.68756 14.2383C3.47662 14.0391 3.19147 13.9414 2.90631 13.9688ZM46.9063 13.9688C46.8633 13.9766 46.8204 13.9883 46.7813 14C46.3165 14.1055 45.9883 14.5234 46.0001 15V35C45.9962 35.3594 46.1837 35.6953 46.4962 35.8789C46.8087 36.0586 47.1915 36.0586 47.504 35.8789C47.8165 35.6953 48.004 35.3594 48.0001 35V15C48.0118 14.7109 47.8946 14.4336 47.6876 14.2383C47.4766 14.0391 47.1915 13.9414 46.9063 13.9688ZM7.00006 14C6.44928 14 6.00006 14.4492 6.00006 15C6.00006 15.5508 6.44928 16 7.00006 16C7.55084 16 8.00006 15.5508 8.00006 15C8.00006 14.4492 7.55084 14 7.00006 14ZM11.0001 14C10.4493 14 10.0001 14.4492 10.0001 15C10.0001 15.5508 10.4493 16 11.0001 16C11.5508 16 12.0001 15.5508 12.0001 15C12.0001 14.4492 11.5508 14 11.0001 14ZM15.0001 14C14.4493 14 14.0001 14.4492 14.0001 15C14.0001 15.5508 14.4493 16 15.0001 16C15.5508 16 16.0001 15.5508 16.0001 15C16.0001 14.4492 15.5508 14 15.0001 14ZM19.0001 14C18.4493 14 18.0001 14.4492 18.0001 15C18.0001 15.5508 18.4493 16 19.0001 16C19.5508 16 20.0001 15.5508 20.0001 15C20.0001 14.4492 19.5508 14 19.0001 14ZM23.0001 14C22.4493 14 22.0001 14.4492 22.0001 15C22.0001 15.5508 22.4493 16 23.0001 16C23.5508 16 24.0001 15.5508 24.0001 15C24.0001 14.4492 23.5508 14 23.0001 14ZM27.0001 14C26.4493 14 26.0001 14.4492 26.0001 15C26.0001 15.5508 26.4493 16 27.0001 16C27.5508 16 28.0001 15.5508 28.0001 15C28.0001 14.4492 27.5508 14 27.0001 14ZM31.0001 14C30.4493 14 30.0001 14.4492 30.0001 15C30.0001 15.5508 30.4493 16 31.0001 16C31.5508 16 32.0001 15.5508 32.0001 15C32.0001 14.4492 31.5508 14 31.0001 14ZM35.0001 14C34.4493 14 34.0001 14.4492 34.0001 15C34.0001 15.5508 34.4493 16 35.0001 16C35.5508 16 36.0001 15.5508 36.0001 15C36.0001 14.4492 35.5508 14 35.0001 14ZM39.0001 14C38.4493 14 38.0001 14.4492 38.0001 15C38.0001 15.5508 38.4493 16 39.0001 16C39.5508 16 40.0001 15.5508 40.0001 15C40.0001 14.4492 39.5508 14 39.0001 14ZM43.0001 14C42.4493 14 42.0001 14.4492 42.0001 15C42.0001 15.5508 42.4493 16 43.0001 16C43.5508 16 44.0001 15.5508 44.0001 15C44.0001 14.4492 43.5508 14 43.0001 14ZM7.00006 34C6.44928 34 6.00006 34.4492 6.00006 35C6.00006 35.5508 6.44928 36 7.00006 36C7.55084 36 8.00006 35.5508 8.00006 35C8.00006 34.4492 7.55084 34 7.00006 34ZM11.0001 34C10.4493 34 10.0001 34.4492 10.0001 35C10.0001 35.5508 10.4493 36 11.0001 36C11.5508 36 12.0001 35.5508 12.0001 35C12.0001 34.4492 11.5508 34 11.0001 34ZM15.0001 34C14.4493 34 14.0001 34.4492 14.0001 35C14.0001 35.5508 14.4493 36 15.0001 36C15.5508 36 16.0001 35.5508 16.0001 35C16.0001 34.4492 15.5508 34 15.0001 34ZM19.0001 34C18.4493 34 18.0001 34.4492 18.0001 35C18.0001 35.5508 18.4493 36 19.0001 36C19.5508 36 20.0001 35.5508 20.0001 35C20.0001 34.4492 19.5508 34 19.0001 34ZM23.0001 34C22.4493 34 22.0001 34.4492 22.0001 35C22.0001 35.5508 22.4493 36 23.0001 36C23.5508 36 24.0001 35.5508 24.0001 35C24.0001 34.4492 23.5508 34 23.0001 34ZM27.0001 34C26.4493 34 26.0001 34.4492 26.0001 35C26.0001 35.5508 26.4493 36 27.0001 36C27.5508 36 28.0001 35.5508 28.0001 35C28.0001 34.4492 27.5508 34 27.0001 34ZM31.0001 34C30.4493 34 30.0001 34.4492 30.0001 35C30.0001 35.5508 30.4493 36 31.0001 36C31.5508 36 32.0001 35.5508 32.0001 35C32.0001 34.4492 31.5508 34 31.0001 34ZM35.0001 34C34.4493 34 34.0001 34.4492 34.0001 35C34.0001 35.5508 34.4493 36 35.0001 36C35.5508 36 36.0001 35.5508 36.0001 35C36.0001 34.4492 35.5508 34 35.0001 34ZM39.0001 34C38.4493 34 38.0001 34.4492 38.0001 35C38.0001 35.5508 38.4493 36 39.0001 36C39.5508 36 40.0001 35.5508 40.0001 35C40.0001 34.4492 39.5508 34 39.0001 34ZM43.0001 34C42.4493 34 42.0001 34.4492 42.0001 35C42.0001 35.5508 42.4493 36 43.0001 36C43.5508 36 44.0001 35.5508 44.0001 35C44.0001 34.4492 43.5508 34 43.0001 34Z" fill="black"/>
<path fill-rule="evenodd" clip-rule="evenodd" d="M6.06573 25.4299C5.53278 25.0299 5.53278 24.2303 6.06573 23.8303L10.8999 20.202C11.559 19.7073 12.5001 20.1776 12.5001 21.0018V22.1301H38.5001V21.0018C38.5001 20.1776 39.4412 19.7073 40.1004 20.202L44.9345 23.8303C45.4675 24.2303 45.4675 25.0299 44.9345 25.4299L40.1004 29.0582C39.4412 29.5529 38.5001 29.0826 38.5001 28.2584V27.1301H12.5001V28.2584C12.5001 29.0826 11.559 29.5529 10.8999 29.0582L6.06573 25.4299Z" fill="#E75F63"/>
<path fill-rule="evenodd" clip-rule="evenodd" d="M10.5001 23.0027L8.33189 24.6301L10.5001 26.2575V25.1301H40.5001V26.2575L42.6684 24.6301L40.5001 23.0027V24.1301H10.5001V23.0027ZM43.734 25.4299C43.7336 25.4296 43.7333 25.4294 43.733 25.4291L43.734 25.4299ZM6.06573 23.8303C5.53278 24.2303 5.53278 25.0299 6.06573 25.4299L10.8999 29.0582C11.559 29.5529 12.5001 29.0826 12.5001 28.2584V27.1301H38.5001V28.2584C38.5001 29.0826 39.4412 29.5529 40.1004 29.0582L44.9345 25.4299C45.4675 25.0299 45.4675 24.2303 44.9345 23.8303L40.1004 20.202C39.4412 19.7073 38.5001 20.1776 38.5001 21.0018V22.1301H12.5001V21.0018C12.5001 20.1776 11.559 19.7073 10.8999 20.202L6.06573 23.8303Z" fill="black"/>
</svg>

<svg width="50" height="50" fill="none" xmlns="http://www.w3.org/2000/svg"><path d="M2.906 13.969a1.17 1.17 0 00-.125.031 1.002 1.002 0 00-.78 1v20c-.005.36.183.695.495.879.313.18.695.18 1.008 0 .312-.184.5-.52.496-.879V15a1 1 0 00-1.094-1.031zm44 0a1.17 1.17 0 00-.125.031 1.002 1.002 0 00-.78 1v20c-.005.36.183.695.495.879.313.18.695.18 1.008 0 .313-.184.5-.52.496-.879V15a1 1 0 00-1.094-1.031zM7 14c-.55 0-1 .45-1 1s.45 1 1 1 1-.45 1-1-.45-1-1-1zm4 0c-.55 0-1 .45-1 1s.45 1 1 1 1-.45 1-1-.45-1-1-1zm4 0c-.55 0-1 .45-1 1s.45 1 1 1 1-.45 1-1-.45-1-1-1zm4 0c-.55 0-1 .45-1 1s.45 1 1 1 1-.45 1-1-.45-1-1-1zm4 0c-.55 0-1 .45-1 1s.45 1 1 1 1-.45 1-1-.45-1-1-1zm4 0c-.55 0-1 .45-1 1s.45 1 1 1 1-.45 1-1-.45-1-1-1zm4 0c-.55 0-1 .45-1 1s.45 1 1 1 1-.45 1-1-.45-1-1-1zm4 0c-.55 0-1 .45-1 1s.45 1 1 1 1-.45 1-1-.45-1-1-1zm4 0c-.55 0-1 .45-1 1s.45 1 1 1 1-.45 1-1-.45-1-1-1zm4 0c-.55 0-1 .45-1 1s.45 1 1 1 1-.45 1-1-.45-1-1-1zM7 34c-.55 0-1 .45-1 1s.45 1 1 1 1-.45 1-1-.45-1-1-1zm4 0c-.55 0-1 .45-1 1s.45 1 1 1 1-.45 1-1-.45-1-1-1zm4 0c-.55 0-1 .45-1 1s.45 1 1 1 1-.45 1-1-.45-1-1-1zm4 0c-.55 0-1 .45-1 1s.45 1 1 1 1-.45 1-1-.45-1-1-1zm4 0c-.55 0-1 .45-1 1s.45 1 1 1 1-.45 1-1-.45-1-1-1zm4 0c-.55 0-1 .45-1 1s.45 1 1 1 1-.45 1-1-.45-1-1-1zm4 0c-.55 0-1 .45-1 1s.45 1 1 1 1-.45 1-1-.45-1-1-1zm4 0c-.55 0-1 .45-1 1s.45 1 1 1 1-.45 1-1-.45-1-1-1zm4 0c-.55 0-1 .45-1 1s.45 1 1 1 1-.45 1-1-.45-1-1-1zm4 0c-.55 0-1 .45-1 1s.45 1 1 1 1-.45 1-1-.45-1-1-1z" fill="#000"/><path fill-rule="evenodd" clip-rule="evenodd" d="M6.066 25.43a1 1 0 010-1.6l4.834-3.628a1 1 0 011.6.8v1.128h26v-1.128a1 1 0 011.6-.8l4.834 3.628a1 1 0 010 1.6L40.1 29.058a1 1 0 01-1.6-.8V27.13h-26v1.128a1 1 0 01-1.6.8L6.066 25.43z" fill="#E75F63"/><path fill-rule="evenodd" clip-rule="evenodd" d="M10.5 23.003L8.332 24.63l2.168 1.628V25.13h30v1.128l2.168-1.628-2.168-1.627v1.127h-30v-1.127zm33.234 2.427h-.001.001zm-37.668-1.6a1 1 0 000 1.6l4.834 3.628a1 1 0 001.6-.8V27.13h26v1.128a1 1 0 001.6.8l4.834-3.628a1 1 0 000-1.6L40.1 20.202a1 1 0 00-1.6.8v1.128h-26v-1.128a1 1 0 00-1.6-.8L6.066 23.83z" fill="#000"/></svg>
